public/build/img/logout.svg

<!DOCTYPE svg PUBLIC "-//W3C//DTD SVG 1.1//EN" "http://www.w3.org/Graphics/SVG/1.1/DTD/svg11.dtd">
<!-- Uploaded to: SVG Repo, www.svgrepo.com, Transformed by: SVG Repo Mixer Tools -->
<svg width="256px" height="256px" viewBox="0 -0.5 25 25" fill="none" xmlns="http://www.w3.org/2000/svg" stroke="#ffffff" stroke-width="0.625">
<g id="SVGRepo_bgCarrier" stroke-width="0"/>
<g id="SVGRepo_tracerCarrier" stroke-linecap="round" stroke-linejoin="round"/>
<g id="SVGRepo_iconCarrier"> <path d="M11.75 9.874C11.75 10.2882 12.0858 10.624 12.5 10.624C12.9142 10.624 13.25 10.2882 13.25 9.874H11.75ZM13.25 4C13.25 3.58579 12.9142 3.25 12.5 3.25C12.0858 3.25 11.75 3.58579 11.75 4H13.25ZM9.81082 6.66156C10.1878 6.48991 10.3542 6.04515 10.1826 5.66818C10.0109 5.29121 9.56615 5.12478 9.18918 5.29644L9.81082 6.66156ZM5.5 12.16L4.7499 12.1561L4.75005 12.1687L5.5 12.16ZM12.5 19L12.5086 18.25C12.5029 18.25 12.4971 18.25 12.4914 18.25L12.5 19ZM19.5 12.16L20.2501 12.1687L20.25 12.1561L19.5 12.16ZM15.8108 5.29644C15.4338 5.12478 14.9891 5.29121 14.8174 5.66818C14.6458 6.04515 14.8122 6.48991 15.1892 6.66156L15.8108 5.29644ZM13.25 9.874V4H11.75V9.874H13.25ZM9.18918 5.29644C6.49843 6.52171 4.7655 9.19951 4.75001 12.1561L6.24999 12.1639C6.26242 9.79237 7.65246 7.6444 9.81082 6.66156L9.18918 5.29644ZM4.75005 12.1687C4.79935 16.4046 8.27278 19.7986 12.5086 19.75L12.4914 18.25C9.08384 18.2892 6.28961 15.5588 6.24995 12.1513L4.75005 12.1687ZM12.4914 19.75C16.7272 19.7986 20.2007 16.4046 20.2499 12.1687L18.7501 12.1513C18.7104 15.5588 15.9162 18.2892 12.5086 18.25L12.4914 19.75ZM20.25 12.1561C20.2345 9.19951 18.5016 6.52171 15.8108 5.29644L15.1892 6.66156C17.3475 7.6444 18.7376 9.79237 18.75 12.1639L20.25 12.1561Z" fill="#fff"/> </g>
</svg>

<svg width="256" height="256" viewBox="0 -0.5 25 25" fill="none" xmlns="http://www.w3.org/2000/svg" stroke="#fff" stroke-width=".625"><path d="M11.75 9.874a.75.75 0 001.5 0h-1.5zM13.25 4a.75.75 0 00-1.5 0h1.5zM9.81 6.662a.75.75 0 00-.62-1.366l.62 1.366zM5.5 12.16l-.75-.004v.013l.75-.009zm7 6.84l.009-.75h-.018l.009.75zm7-6.84l.75.009v-.013l-.75.004zm-3.69-6.864a.75.75 0 10-.62 1.366l.62-1.366zm-2.56 4.578V4h-1.5v5.874h1.5zM9.19 5.296a7.581 7.581 0 00-4.44 6.86l1.5.008a6.081 6.081 0 013.56-5.502l-.62-1.366zM4.75 12.17a7.671 7.671 0 007.759 7.581l-.018-1.5a6.17 6.17 0 01-6.241-6.099l-1.5.018zm7.741 7.581a7.67 7.67 0 007.759-7.581l-1.5-.018a6.171 6.171 0 01-6.241 6.099l-.018 1.5zm7.759-7.594a7.581 7.581 0 00-4.44-6.86l-.62 1.366a6.081 6.081 0 013.56 5.502l1.5-.008z" fill="#fff"/></svg>
